X: 20513
Q: "Slow."
M: 6/8
L: 1/8
K: G
d2e dBG | gdB dBG | d2e dBG | g>fg/b/ B2A |\
d2e dBG | g>fg/b/ Ha2 g/b/ | geg dBG | BGG "^Fin."G2 H:|


